icons/1_Primary/SOGo.svg

<svg width="1024" height="1024" viewBox="0 0 1024 1024" fill="none" xmlns="http://www.w3.org/2000/svg">
<g clip-path="url(#clip0_2_3498)">
<path d="M512 1024C794.77 1024 1024 794.77 1024 512C1024 229.23 794.77 0 512 0C229.23 0 0 229.23 0 512C0 794.77 229.23 1024 512 1024Z" fill="#98DC9A"/>
<path d="M770.71 447.1C760.85 447.1 753.85 439.88 753.85 430.2C753.85 420.52 760.85 413.29 770.71 413.29C780.57 413.29 787.65 420.51 787.65 430.2C787.65 439.89 780.65 447.1 770.71 447.1ZM770.71 396.75C751.18 396.75 737.32 411.03 737.32 430.2C737.32 449.37 751.19 463.64 770.71 463.64C790.23 463.64 804.23 449.36 804.23 430.2C804.23 411.04 790.33 396.75 770.68 396.75H770.71ZM770.71 480.98C741 481 720 459.3 720 430.2C720 401.1 741.05 379.43 770.69 379.43C800.52 379.43 821.56 401.1 821.56 430.2C821.56 459.3 800.48 481 770.65 481L770.71 480.98ZM770.71 360.66C730.13 360.66 701.31 390.35 701.31 430.21C701.31 470.07 730.13 499.74 770.71 499.74C811.56 499.74 840.39 470.06 840.39 430.21C840.39 390.36 811.46 360.65 770.61 360.65L770.71 360.66ZM284.49 485L263.65 480C244.65 475.64 235.04 470.67 235.04 457C235.04 441.45 250.9 435.22 265.2 435.22C279.74 435.22 290.37 442.49 296.62 453.8C296.644 453.856 296.674 453.91 296.71 453.96C296.84 454.21 296.98 454.44 297.11 454.69C298.059 456.185 299.362 457.424 300.904 458.296C302.446 459.168 304.179 459.647 305.95 459.69C307.337 459.74 308.72 459.504 310.013 458.996C311.305 458.489 312.479 457.72 313.461 456.739C314.444 455.757 315.213 454.584 315.722 453.292C316.231 452 316.469 450.618 316.42 449.23C316.466 446.92 315.919 444.637 314.83 442.6C304.16 424.45 286.56 416.6 266.4 416.6C239.04 416.6 212.6 430.28 212.6 460.44C212.6 488.12 239.97 496.21 249.92 498.69L269.82 503.36C285.06 507.09 297.5 512.08 297.5 526.68C297.5 543.47 280.09 550.95 263.29 550.95C246.19 550.95 233.53 542.2 224.8 529.3C223.579 527.365 221.752 525.888 219.605 525.099C217.457 524.31 215.109 524.254 212.926 524.938C210.743 525.623 208.847 527.01 207.535 528.885C206.222 530.759 205.567 533.014 205.67 535.3C205.753 537.537 206.494 539.701 207.8 541.52C221.47 561.98 241.24 569.62 263.29 569.62C291.59 569.62 319.89 556.56 319.89 524.84C319.94 504.29 304.7 489.67 284.49 485ZM423.62 550.85C390.04 550.85 368.89 525.66 368.89 493.01C368.89 460.36 390.04 435.16 423.62 435.16C457.52 435.16 478.62 460.35 478.62 493.01C478.62 525.67 457.52 550.85 423.62 550.85ZM423.62 416.51C378.53 416.51 346.5 449.16 346.5 493.01C346.5 536.86 378.5 569.5 423.62 569.5C469 569.5 501 536.85 501 493C501 449.15 469 416.51 423.62 416.51ZM642 535C641.24 535.73 640.46 536.46 639.62 537.15C638.4 538.273 637.125 539.335 635.8 540.33C627.05 546.67 615.99 550.33 603.06 550.33C569.47 550.33 548.33 525.14 548.33 492.49C548.33 459.84 569.47 434.64 603.06 434.64C636.95 434.64 658.06 459.83 658.06 492.49C658.08 509.54 652.32 524.54 642 535ZM591.8 617.9C594.407 617.894 597.012 617.727 599.6 617.4C604.113 616.817 608.659 616.516 613.21 616.5C632.29 616.61 642 622.15 647.86 628.55C653.72 634.95 655.96 643.73 655.95 651.15C655.986 654.075 655.592 656.99 654.78 659.8C651.86 668.65 645.97 674.68 636.94 679.21C627.91 683.74 616.02 685.93 603.52 685.91C599.001 685.904 594.486 685.63 590 685.09C581.5 684.09 570.26 680.46 562.11 674.09C558.05 671.038 554.689 667.155 552.25 662.7C549.631 657.672 548.311 652.068 548.41 646.4V645.66C548.67 633.42 554.29 625.29 560.41 619.39C562.993 616.963 565.829 614.821 568.87 613L569.87 612.41C576.551 616.185 584.128 618.082 591.8 617.9ZM603 416C557.91 416 525.87 448.65 525.87 492.5C525.87 522.13 540.51 546.63 563.92 559.41C563.61 559.72 563.3 560.05 563.01 560.41C557.105 566.893 553.838 575.35 553.85 584.12C553.849 588.007 554.526 591.865 555.85 595.52C552.151 597.888 548.68 600.593 545.48 603.6C539.663 608.909 534.99 615.349 531.748 622.526C528.505 629.703 526.76 637.466 526.62 645.34V646.45C526.523 655.693 528.723 664.816 533.02 673C539.1 684.37 548.57 692.28 558.34 697.56C567.361 702.375 577.191 705.49 587.34 706.75C592.692 707.402 598.078 707.736 603.47 707.75C618.47 707.75 633.47 705.2 646.47 698.81C659.47 692.42 670.6 681.7 675.42 666.52C676.926 661.561 677.671 656.402 677.63 651.22C677.63 639.72 674.31 625.68 663.98 614.09C653.65 602.5 636.56 594.69 613.13 594.8C607.683 594.822 602.243 595.18 596.84 595.87C595.141 596.083 593.431 596.193 591.72 596.2C584.54 596.2 580.94 594.2 578.79 592.14C577.742 591.093 576.917 589.844 576.367 588.469C575.817 587.094 575.553 585.621 575.59 584.14C575.595 580.82 576.819 577.617 579.03 575.14C581.24 572.83 584.03 571.26 588.79 571.2H590.15C593.223 571.413 596.223 571.52 599.15 571.52C623.15 571.52 641.15 564.14 653.44 553.91C663.701 545.408 671.3 534.133 675.33 521.43C678.785 512.182 680.53 502.382 680.48 492.51C680.48 448.64 648.45 416 603 416Z" fill="white"/>
</g>
<defs>
<clipPath id="clip0_2_3498">
<rect width="1024" height="1024" fill="white"/>
</clipPath>
</defs>
</svg>

<svg width="1024" height="1024" fill="none" xmlns="http://www.w3.org/2000/svg"><g clip-path="url(#a)"><path d="M512 1024c282.77 0 512-229.23 512-512S794.77 0 512 0 0 229.23 0 512s229.23 512 512 512Z" fill="#98DC9A"/><path d="M770.71 447.1c-9.86 0-16.86-7.22-16.86-16.9s7-16.91 16.86-16.91 16.94 7.22 16.94 16.91c0 9.69-7 16.9-16.94 16.9Zm0-50.35c-19.53 0-33.39 14.28-33.39 33.45s13.87 33.44 33.39 33.44c19.52 0 33.52-14.28 33.52-33.44 0-19.16-13.9-33.45-33.55-33.45h.03Zm0 84.23C741 481 720 459.3 720 430.2s21.05-50.77 50.69-50.77c29.83 0 50.87 21.67 50.87 50.77S800.48 481 770.65 481l.06-.02Zm0-120.32c-40.58 0-69.4 29.69-69.4 69.55s28.82 69.53 69.4 69.53c40.85 0 69.68-29.68 69.68-69.53s-28.93-69.56-69.78-69.56l.1.01ZM284.49 485l-20.84-5c-19-4.36-28.61-9.33-28.61-23 0-15.55 15.86-21.78 30.16-21.78 14.54 0 25.17 7.27 31.42 18.58a.84.84 0 0 0 .09.16c.13.25.27.48.4.73a10.78 10.78 0 0 0 8.84 5 10.114 10.114 0 0 0 10.47-10.46 13.492 13.492 0 0 0-1.59-6.63c-10.67-18.15-28.27-26-48.43-26-27.36 0-53.8 13.68-53.8 43.84 0 27.68 27.37 35.77 37.32 38.25l19.9 4.67c15.24 3.73 27.68 8.72 27.68 23.32 0 16.79-17.41 24.27-34.21 24.27-17.1 0-29.76-8.75-38.49-21.65a10.375 10.375 0 0 0-11.874-4.362 10.367 10.367 0 0 0-7.256 10.362 11.39 11.39 0 0 0 2.13 6.22c13.67 20.46 33.44 28.1 55.49 28.1 28.3 0 56.6-13.06 56.6-44.78.05-20.55-15.19-35.17-35.4-39.84Zm139.13 65.85c-33.58 0-54.73-25.19-54.73-57.84 0-32.65 21.15-57.85 54.73-57.85 33.9 0 55 25.19 55 57.85s-21.1 57.84-55 57.84Zm0-134.34c-45.09 0-77.12 32.65-77.12 76.5s32 76.49 77.12 76.49C469 569.5 501 536.85 501 493s-32-76.49-77.38-76.49ZM642 535c-.76.73-1.54 1.46-2.38 2.15a49.773 49.773 0 0 1-3.82 3.18c-8.75 6.34-19.81 10-32.74 10-33.59 0-54.73-25.19-54.73-57.84 0-32.65 21.14-57.85 54.73-57.85 33.89 0 55 25.19 55 57.85.02 17.05-5.74 32.05-16.06 42.51Zm-50.2 82.9a63.387 63.387 0 0 0 7.8-.5c4.513-.583 9.059-.884 13.61-.9 19.08.11 28.79 5.65 34.65 12.05 5.86 6.4 8.1 15.18 8.09 22.6a29.838 29.838 0 0 1-1.17 8.65c-2.92 8.85-8.81 14.88-17.84 19.41-9.03 4.53-20.92 6.72-33.42 6.7-4.519-.006-9.034-.28-13.52-.82-8.5-1-19.74-4.63-27.89-11a35.69 35.69 0 0 1-9.86-11.39 34 34 0 0 1-3.84-16.3v-.74c.26-12.24 5.88-20.37 12-26.27a49.468 49.468 0 0 1 8.46-6.39l1-.59a42.527 42.527 0 0 0 21.93 5.49ZM603 416c-45.09 0-77.13 32.65-77.13 76.5 0 29.63 14.64 54.13 38.05 66.91-.31.31-.62.64-.91 1a35.138 35.138 0 0 0-9.16 23.71 33.448 33.448 0 0 0 2 11.4 71.207 71.207 0 0 0-10.37 8.08 57.905 57.905 0 0 0-18.86 41.74v1.11a55.854 55.854 0 0 0 6.4 26.55c6.08 11.37 15.55 19.28 25.32 24.56a83.41 83.41 0 0 0 29 9.19c5.352.652 10.738.986 16.13 1 15 0 30-2.55 43-8.94s24.13-17.11 28.95-32.29a51.258 51.258 0 0 0 2.21-15.3c0-11.5-3.32-25.54-13.65-37.13-10.33-11.59-27.42-19.4-50.85-19.29-5.447.022-10.887.38-16.29 1.07a42.562 42.562 0 0 1-5.12.33c-7.18 0-10.78-2-12.93-4.06a10.927 10.927 0 0 1-3.2-8 13.546 13.546 0 0 1 3.44-9c2.21-2.31 5-3.88 9.76-3.94h1.36c3.073.213 6.073.32 9 .32 24 0 42-7.38 54.29-17.61a69.457 69.457 0 0 0 21.89-32.48 81.46 81.46 0 0 0 5.15-28.92c0-43.87-32.03-76.51-77.48-76.51Z" fill="#fff"/></g><defs><clipPath id="a"><path fill="#fff" d="M0 0h1024v1024H0z"/></clipPath></defs></svg>
